images/development-services/half-circle-progress.svg

<svg width="272" height="151" viewBox="0 0 272 151" fill="none" xmlns="http://www.w3.org/2000/svg">
<mask id="mask0_409_322" style="mask-type:alpha" maskUnits="userSpaceOnUse" x="0" y="0" width="264" height="135">
<rect width="263.528" height="135" fill="#D9D9D9"/>
</mask>
<g mask="url(#mask0_409_322)">
<mask id="path-2-inside-1_409_322" fill="white">
<path d="M8.03731 134.185C3.6177 134.286 -0.0716648 130.781 0.0945942 126.363C1.23465 96.0707 12.6422 67.0148 32.51 44.2121C54.1227 19.4069 84.1489 3.83523 116.568 0.619563C148.987 -2.59611 181.402 6.78197 207.313 26.8733C231.144 45.3525 247.853 71.6381 254.711 101.156C255.706 105.441 252.78 109.569 248.447 110.334L245.172 110.912C240.803 111.683 236.669 108.741 235.616 104.431C229.608 79.8384 215.536 57.9662 195.608 42.5134C173.574 25.4284 146.009 17.4536 118.441 20.1881C90.8733 22.9226 65.3399 36.1642 46.9612 57.2578C30.3251 76.3513 20.6647 100.601 19.4469 125.933C19.2348 130.343 15.7669 134.007 11.3523 134.108L8.03731 134.185Z"/>
</mask>
<path d="M8.03731 134.185C3.6177 134.286 -0.0716648 130.781 0.0945942 126.363C1.23465 96.0707 12.6422 67.0148 32.51 44.2121C54.1227 19.4069 84.1489 3.83523 116.568 0.619563C148.987 -2.59611 181.402 6.78197 207.313 26.8733C231.144 45.3525 247.853 71.6381 254.711 101.156C255.706 105.441 252.78 109.569 248.447 110.334L245.172 110.912C240.803 111.683 236.669 108.741 235.616 104.431C229.608 79.8384 215.536 57.9662 195.608 42.5134C173.574 25.4284 146.009 17.4536 118.441 20.1881C90.8733 22.9226 65.3399 36.1642 46.9612 57.2578C30.3251 76.3513 20.6647 100.601 19.4469 125.933C19.2348 130.343 15.7669 134.007 11.3523 134.108L8.03731 134.185Z" stroke="#2251E0" stroke-width="60" stroke-linecap="round" stroke-linejoin="round" mask="url(#path-2-inside-1_409_322)"/>
</g>
<g filter="url(#filter0_d_409_322)">
<ellipse cx="247.294" cy="117.975" rx="16.7063" ry="16.6938" fill="#2251E0"/>
<path d="M261.501 117.975C261.501 125.812 255.142 132.169 247.294 132.169C239.447 132.169 233.088 125.812 233.088 117.975C233.088 110.138 239.447 103.781 247.294 103.781C255.142 103.781 261.501 110.138 261.501 117.975Z" stroke="white" stroke-width="5"/>
</g>
<defs>
<filter id="filter0_d_409_322" x="222.588" y="101.281" width="49.4131" height="49.3877" filterUnits="userSpaceOnUse" color-interpolation-filters="sRGB">
<feFlood flood-opacity="0" result="BackgroundImageFix"/>
<feColorMatrix in="SourceAlpha" type="matrix" values="0 0 0 0 0 0 0 0 0 0 0 0 0 0 0 0 0 0 127 0" result="hardAlpha"/>
<feOffset dy="8"/>
<feGaussianBlur stdDeviation="4"/>
<feComposite in2="hardAlpha" operator="out"/>
<feColorMatrix type="matrix" values="0 0 0 0 0.0509804 0 0 0 0 0.0392157 0 0 0 0 0.172549 0 0 0 0.08 0"/>
<feBlend mode="normal" in2="BackgroundImageFix" result="effect1_dropShadow_409_322"/>
<feBlend mode="normal" in="SourceGraphic" in2="effect1_dropShadow_409_322" result="shape"/>
</filter>
</defs>
</svg>

<svg width="272" height="151" fill="none" xmlns="http://www.w3.org/2000/svg"><mask id="a" style="mask-type:alpha" maskUnits="userSpaceOnUse" x="0" y="0" width="264" height="135"><path fill="#D9D9D9" d="M0 0h263.528v135H0z"/></mask><g mask="url(#a)"><mask id="b" fill="#fff"><path d="M8.037 134.185c-4.42.101-8.109-3.404-7.942-7.822 1.14-30.292 12.547-59.348 32.415-82.15C54.123 19.406 84.149 3.834 116.568.62c32.419-3.216 64.834 6.162 90.745 26.253 23.831 18.48 40.54 44.765 47.398 74.283.995 4.285-1.931 8.413-6.264 9.178l-3.275.578c-4.369.771-8.503-2.171-9.556-6.481-6.008-24.593-20.08-46.465-40.008-61.918-22.034-17.085-49.599-25.06-77.167-22.325-27.568 2.735-53.101 15.976-71.48 37.07C30.325 76.35 20.665 100.6 19.447 125.933c-.212 4.41-3.68 8.074-8.095 8.175l-3.315.077Z"/></mask><path d="M8.037 134.185c-4.42.101-8.109-3.404-7.942-7.822 1.14-30.292 12.547-59.348 32.415-82.15C54.123 19.406 84.149 3.834 116.568.62c32.419-3.216 64.834 6.162 90.745 26.253 23.831 18.48 40.54 44.765 47.398 74.283.995 4.285-1.931 8.413-6.264 9.178l-3.275.578c-4.369.771-8.503-2.171-9.556-6.481-6.008-24.593-20.08-46.465-40.008-61.918-22.034-17.085-49.599-25.06-77.167-22.325-27.568 2.735-53.101 15.976-71.48 37.07C30.325 76.35 20.665 100.6 19.447 125.933c-.212 4.41-3.68 8.074-8.095 8.175l-3.315.077Z" stroke="#2251E0" stroke-width="60" stroke-linecap="round" stroke-linejoin="round" mask="url(#b)"/></g><g filter="url(#c)"><ellipse cx="247.294" cy="117.975" rx="16.706" ry="16.694" fill="#2251E0"/><path d="M261.501 117.975c0 7.837-6.359 14.194-14.207 14.194-7.847 0-14.206-6.357-14.206-14.194 0-7.837 6.359-14.194 14.206-14.194 7.848 0 14.207 6.357 14.207 14.194Z" stroke="#fff" stroke-width="5"/></g><defs><filter id="c" x="222.588" y="101.281" width="49.413" height="49.388" filterUnits="userSpaceOnUse" color-interpolation-filters="sRGB"><feFlood flood-opacity="0" result="BackgroundImageFix"/><feColorMatrix in="SourceAlpha" values="0 0 0 0 0 0 0 0 0 0 0 0 0 0 0 0 0 0 127 0" result="hardAlpha"/><feOffset dy="8"/><feGaussianBlur stdDeviation="4"/><feComposite in2="hardAlpha" operator="out"/><feColorMatrix values="0 0 0 0 0.0509804 0 0 0 0 0.0392157 0 0 0 0 0.172549 0 0 0 0.08 0"/><feBlend in2="BackgroundImageFix" result="effect1_dropShadow_409_322"/><feBlend in="SourceGraphic" in2="effect1_dropShadow_409_322" result="shape"/></filter></defs></svg>
